Newaita-dark/apps/16/figma.svg

<svg height="16" viewBox="0 0 16 16" width="16" xmlns="http://www.w3.org/2000/svg" xmlns:xlink="http://www.w3.org/1999/xlink"><linearGradient id="a"><stop offset="0" stop-opacity=".313726"/><stop offset=".222222" stop-opacity=".27451"/><stop offset="1" stop-opacity="0"/></linearGradient><radialGradient id="b" cx="450.908936" cy="189.579361" gradientTransform="matrix(.00000009 -.0390662 -.0703192 -.00000005 22.261576 31.797665)" gradientUnits="userSpaceOnUse" r="21.166656" xlink:href="#a"/><radialGradient id="c" cx="450.908936" cy="189.579361" gradientTransform="matrix(-.00000009 .0390662 .0703192 .00000005 -6.385059 -3.763741)" gradientUnits="userSpaceOnUse" r="21.166656" xlink:href="#a"/><radialGradient id="d" cx="450.908936" cy="189.579361" gradientTransform="matrix(-.00000009 -.0390662 .0703192 -.00000005 -6.385059 31.797665)" gradientUnits="userSpaceOnUse" r="21.166656" xlink:href="#a"/><radialGradient id="e" cx="450.908936" cy="189.579361" gradientTransform="matrix(.00000009 .0390662 -.0703192 .00000005 22.261575 -3.763741)" gradientUnits="userSpaceOnUse" r="21.166656" xlink:href="#a"/><linearGradient id="f" gradientTransform="matrix(.00668003 0 0 .031253 6.232693 6.719392)" gradientUnits="userSpaceOnUse" x1="255.323059" x2="255.323044" y1="233.5" y2="254.666656"><stop offset="0" stop-opacity=".27451"/><stop offset="1" stop-opacity="0"/></linearGradient><linearGradient id="g" gradientUnits="userSpaceOnUse" x1="254" x2="254" y1="-168.666672" y2="233.5"><stop offset="0" stop-color="#616161"/><stop offset="1" stop-color="#424242"/></linearGradient><linearGradient id="h" gradientUnits="userSpaceOnUse" x1="6.94597882012" x2="6.94597882012" y1="14.01697441586" y2="1.44803958414"><stop offset="0" stop-color="#26a69a"/><stop offset="1" stop-color="#4db6ac"/></linearGradient><linearGradient id="i" gradientUnits="userSpaceOnUse" x1="7.27674034817" x2="7.27674034817" y1="14.01697941586" y2="1.28266341586"><stop offset="0" stop-color="#7e57c2"/><stop offset="1" stop-color="#9575cd"/></linearGradient><linearGradient id="j" gradientUnits="userSpaceOnUse" x1="7.93826320213" x2="7.93826320213" y1="14.01698441586" y2="1.28266861799"><stop offset="0" stop-color="#f44336"/><stop offset="1" stop-color="#ef5350"/></linearGradient><linearGradient id="k" gradientUnits="userSpaceOnUse" x1="8.93054238201" x2="8.93054238201" y1="14.01698441586" y2="1.28266861799"><stop offset="0" stop-color="#ef5350"/><stop offset="1" stop-color="#e57373"/></linearGradient><linearGradient id="l" gradientUnits="userSpaceOnUse" x1="8.93054238201" x2="8.93054238201" y1="14.01697941586" y2="1.44804417988"><stop offset="0" stop-color="#29b6f6"/><stop offset="1" stop-color="#4fc3f7"/></linearGradient><path d="m9.097656 14.015625h1.320313v-.660156h-1.320313zm0 0" fill="url(#b)"/><path d="m6.78125 14.015625h-1.324219v.664063h1.324219zm0 0" fill="url(#c)"/><path d="m6.78125 14.015625h-1.324219v-.660156h1.324219zm0 0" fill="url(#d)"/><path d="m9.097656 14.015625h1.320313v.664063h-1.320313zm0 0" fill="url(#e)"/><path d="m6.78125 13.851562h2.316406v.828126h-2.316406zm0 0" fill="url(#f)"/><path d="m253.975747-168.629428c111.114389 0 201.105795 89.991406 201.105795 201.105795 0 110.989401-89.991406 200.980807-201.105795 200.980807-110.989402 0-201.105796-89.991406-201.105796-200.980807 0-111.114389 90.116394-201.105795 201.105796-201.105795zm0 0" fill="url(#g)" stroke="#333" stroke-linecap="round" stroke-width="3" transform="matrix(.031253 0 0 .031253 0 6.719392)"/><path d="m7.9375 14.015625c-3.480469 0-6.285156-2.800781-6.285156-6.28125 0-.023437 0-.042969 0-.0625.035156 3.453125 2.824218 6.222656 6.285156 6.222656s6.253906-2.769531 6.285156-6.222656v.0625c0 3.480469-2.804687 6.28125-6.285156 6.28125zm0 0" fill-opacity=".196078"/><path d="m7.9375 1.449219c-3.480469 0-6.285156 2.800781-6.285156 6.285156v.058594c.035156-3.453125 2.824218-6.222657 6.285156-6.222657s6.253906 2.769532 6.285156 6.222657c0-.019531 0-.039063 0-.058594 0-3.484375-2.804687-6.285156-6.285156-6.285156zm0 0" fill="#fff" fill-opacity=".392157"/><path d="m7.9375 1.402344c-3.507812 0-6.332031 2.824218-6.332031 6.332031 0 3.503906 2.824219 6.328125 6.332031 6.328125s6.332031-2.824219 6.332031-6.328125c0-3.507813-2.824219-6.332031-6.332031-6.332031zm0 .09375c3.457031 0 6.238281 2.78125 6.238281 6.238281 0 3.453125-2.78125 6.234375-6.238281 6.234375s-6.238281-2.78125-6.238281-6.234375c0-3.457031 2.78125-6.238281 6.238281-6.238281zm0 0" fill="#212121"/><path d="m5.539062 7.980469c-.019531.082031-.027343.164062-.027343.25 0 .667969.542969 1.210937 1.214843 1.210937h1.210938v-.496094h-1.210938c-.585937 0-1.074218-.414062-1.1875-.964843zm0 0" fill-opacity=".235294"/><path d="m6.726562 11.371094c.667969 0 1.210938-.542969 1.210938-1.214844v-1.210938h-1.210938c-.671874 0-1.214843.542969-1.214843 1.210938 0 .671875.542969 1.214844 1.214843 1.214844zm0 0" fill="url(#h)"/><path d="m7.9375 10.15625c0 .671875-.542969 1.214844-1.210938 1.214844-.585937 0-1.074218-.414063-1.1875-.964844-.019531.078125-.027343.164062-.027343.246094 0 .671875.542969 1.214844 1.214843 1.214844.667969 0 1.210938-.542969 1.210938-1.214844zm0 0" fill-opacity=".235294"/><path d="m5.539062 5.554688c-.019531.082031-.027343.164062-.027343.25 0 .667968.542969 1.210937 1.214843 1.210937h1.210938v-.496094h-1.210938c-.585937 0-1.074218-.414062-1.1875-.964843zm0 0" fill-opacity=".235294"/><path d="m5.511719 7.734375c0-.671875.542969-1.214844 1.214843-1.214844h1.210938v2.425781h-1.210938c-.671874 0-1.214843-.542968-1.214843-1.210937zm0 0" fill="url(#i)"/><path d="m5.511719 5.308594c0-.671875.542969-1.214844 1.214843-1.214844h1.210938v2.425781h-1.210938c-.671874 0-1.214843-.542969-1.214843-1.210937zm0 0" fill="url(#j)"/><path d="m7.9375 4.09375h1.214844c.667968 0 1.210937.542969 1.210937 1.214844 0 .667968-.542969 1.210937-1.210937 1.210937h-1.214844zm0 0" fill="url(#k)"/><path d="m10.339844 5.554688c-.117188.550781-.605469.964843-1.1875.964843h-1.214844v.496094h1.214844c.667968 0 1.210937-.542969 1.210937-1.210937 0-.085938-.007812-.167969-.023437-.25zm0 0" fill-opacity=".235294"/><path d="m10.363281 7.734375c0 .667969-.542969 1.210937-1.210937 1.210937-.671875 0-1.214844-.542968-1.214844-1.210937 0-.671875.542969-1.214844 1.214844-1.214844.667968 0 1.210937.542969 1.210937 1.214844zm0 0" fill="url(#l)"/><path d="m7.964844 7.980469c-.019532.082031-.027344.164062-.027344.25 0 .667969.542969 1.210937 1.214844 1.210937.667968 0 1.210937-.542968 1.210937-1.210937 0-.085938-.007812-.167969-.023437-.25-.117188.550781-.605469.964843-1.1875.964843-.585938 0-1.074219-.414062-1.1875-.964843zm0 0" fill-opacity=".235294"/><path d="m6.726562 8.945312c-.671874 0-1.214843.542969-1.214843 1.210938 0 .058594.003906.113281.011719.167969.082031-.59375.589843-1.046875 1.203124-1.046875h1.210938v-.332032zm0 0" fill="#fff" fill-opacity=".392157"/><path d="m6.726562 6.519531c-.671874 0-1.214843.542969-1.214843 1.214844 0 .054687.003906.109375.011719.164063.082031-.59375.589843-1.046876 1.203124-1.046876h1.210938v-.332031zm0 0" fill="#fff" fill-opacity=".392157"/><path d="m6.726562 4.09375c-.671874 0-1.214843.542969-1.214843 1.214844 0 .054687.003906.109375.011719.164062.082031-.59375.589843-1.046875 1.203124-1.046875h1.210938v-.332031zm0 0" fill="#fff" fill-opacity=".392157"/><path d="m7.9375 4.09375v.332031h1.214844c.613281 0 1.121094.453125 1.199218 1.046875.007813-.054687.011719-.109375.011719-.164062 0-.671875-.542969-1.214844-1.210937-1.214844zm0 0" fill="#fff" fill-opacity=".392157"/><path d="m9.152344 6.519531c-.671875 0-1.214844.542969-1.214844 1.214844 0 .054687.003906.109375.011719.164063.082031-.59375.589843-1.046876 1.203125-1.046876.613281 0 1.121094.453126 1.199218 1.046876.007813-.054688.011719-.109376.011719-.164063 0-.671875-.542969-1.214844-1.210937-1.214844zm0 0" fill="#fff" fill-opacity=".392157"/><g stroke-width="3"><path d="m215.229447 148.840255c21.372959 0 38.7463-17.373341 38.7463-38.871288v-38.7463h-38.7463c-21.497947 0-38.871288 17.373341-38.871288 38.7463 0 21.497947 17.373341 38.871288 38.871288 38.871288zm0 0" fill="none" stroke="#212121" transform="matrix(.031253 0 0 .031253 0 6.719392)"/><path d="m176.358159 32.476367c0-21.497947 17.373341-38.871288 38.871288-38.871288h38.7463v77.617588h-38.7463c-21.497947 0-38.871288-17.373341-38.871288-38.7463zm0 0" fill="none" stroke="#212121" transform="matrix(.031253 0 0 .031253 0 6.719392)"/><path d="m176.358159-45.141221c0-21.497947 17.373341-38.871288 38.871288-38.871288h38.7463v77.617588h-38.7463c-21.497947 0-38.871288-17.373341-38.871288-38.7463zm0 0" fill="none" stroke="#212121" transform="matrix(.031253 0 0 .031253 0 6.719392)"/><path d="m253.975747-84.012509h38.871288c21.372958 0 38.746299 17.373341 38.746299 38.871288 0 21.372959-17.373341 38.7463-38.746299 38.7463h-38.871288zm0 0" fill="none" stroke="#212121" transform="matrix(.031253 0 0 .031253 0 6.719392)"/><path d="m331.593334 32.476367c0 21.372959-17.373341 38.7463-38.746299 38.7463-21.497948 0-38.871288-17.373341-38.871288-38.7463 0-21.497947 17.37334-38.871288 38.871288-38.871288 21.372958 0 38.746299 17.373341 38.746299 38.871288zm0 0" fill="none" stroke="#212121" transform="matrix(.031253 0 0 .031253 0 6.719392)"/></g></svg>

<?xml version="1.0" encoding="UTF-8"?>
<svg xmlns="http://www.w3.org/2000/svg" xmlns:xlink="http://www.w3.org/1999/xlink" width="16px" height="16px" viewBox="0 0 16 16" version="1.1">
<defs>
<radialGradient id="radial0" gradientUnits="userSpaceOnUse" cx="450.908936" cy="189.579361" fx="450.908936" fy="189.579361" r="21.166656" gradientTransform="matrix(0.0000000870852,-0.0390662,-0.0703192,-0.0000000507693,22.261576,31.797665)">
<stop offset="0" style="stop-color:rgb(0%,0%,0%);stop-opacity:0.313726;"/>
<stop offset="0.222222" style="stop-color:rgb(0%,0%,0%);stop-opacity:0.27451;"/>
<stop offset="1" style="stop-color:rgb(0%,0%,0%);stop-opacity:0;"/>
</radialGradient>
<radialGradient id="radial1" gradientUnits="userSpaceOnUse" cx="450.908936" cy="189.579361" fx="450.908936" fy="189.579361" r="21.166656" gradientTransform="matrix(-0.0000000870852,0.0390662,0.0703192,0.0000000507693,-6.385059,-3.763741)">
<stop offset="0" style="stop-color:rgb(0%,0%,0%);stop-opacity:0.313726;"/>
<stop offset="0.222222" style="stop-color:rgb(0%,0%,0%);stop-opacity:0.27451;"/>
<stop offset="1" style="stop-color:rgb(0%,0%,0%);stop-opacity:0;"/>
</radialGradient>
<radialGradient id="radial2" gradientUnits="userSpaceOnUse" cx="450.908936" cy="189.579361" fx="450.908936" fy="189.579361" r="21.166656" gradientTransform="matrix(-0.0000000870852,-0.0390662,0.0703192,-0.0000000507693,-6.385059,31.797665)">
<stop offset="0" style="stop-color:rgb(0%,0%,0%);stop-opacity:0.313726;"/>
<stop offset="0.222222" style="stop-color:rgb(0%,0%,0%);stop-opacity:0.27451;"/>
<stop offset="1" style="stop-color:rgb(0%,0%,0%);stop-opacity:0;"/>
</radialGradient>
<radialGradient id="radial3" gradientUnits="userSpaceOnUse" cx="450.908936" cy="189.579361" fx="450.908936" fy="189.579361" r="21.166656" gradientTransform="matrix(0.0000000870852,0.0390662,-0.0703192,0.0000000507693,22.261575,-3.763741)">
<stop offset="0" style="stop-color:rgb(0%,0%,0%);stop-opacity:0.313726;"/>
<stop offset="0.222222" style="stop-color:rgb(0%,0%,0%);stop-opacity:0.27451;"/>
<stop offset="1" style="stop-color:rgb(0%,0%,0%);stop-opacity:0;"/>
</radialGradient>
<linearGradient id="linear0" gradientUnits="userSpaceOnUse" x1="255.323059" y1="233.5" x2="255.323044" y2="254.666656" gradientTransform="matrix(0.00668003,0,0,0.031253,6.232693,6.719392)">
<stop offset="0" style="stop-color:rgb(0%,0%,0%);stop-opacity:0.27451;"/>
<stop offset="1" style="stop-color:rgb(0%,0%,0%);stop-opacity:0;"/>
</linearGradient>
<linearGradient id="linear1" gradientUnits="userSpaceOnUse" x1="254" y1="-168.666672" x2="254" y2="233.5" >
<stop offset="0" style="stop-color:rgb(38.039216%,38.039216%,38.039216%);stop-opacity:1;"/>
<stop offset="1" style="stop-color:rgb(25.882354%,25.882354%,25.882354%);stop-opacity:1;"/>
</linearGradient>
<linearGradient id="linear2" gradientUnits="userSpaceOnUse" x1="7.09091" y1="25.090908" x2="7.09091" y2="-37.090908" gradientTransform="matrix(0.202132,0,0,0.202132,5.512679,8.945299)">
<stop offset="0" style="stop-color:rgb(14.901961%,65.098041%,60.392159%);stop-opacity:1;"/>
<stop offset="1" style="stop-color:rgb(30.19608%,71.372551%,67.450982%);stop-opacity:1;"/>
</linearGradient>
<linearGradient id="linear3" gradientUnits="userSpaceOnUse" x1="8.727274" y1="37.090908" x2="8.727274" y2="-25.909092" gradientTransform="matrix(0.202132,0,0,0.202132,5.512679,6.51972)">
<stop offset="0" style="stop-color:rgb(49.411765%,34.117648%,76.078433%);stop-opacity:1;"/>
<stop offset="1" style="stop-color:rgb(58.431375%,45.882353%,80.392158%);stop-opacity:1;"/>
</linearGradient>
<linearGradient id="linear4" gradientUnits="userSpaceOnUse" x1="12.000001" y1="49.090908" x2="12.000001" y2="-13.909091" gradientTransform="matrix(0.202132,0,0,0.202132,5.512679,4.094141)">
<stop offset="0" style="stop-color:rgb(95.686275%,26.274511%,21.176471%);stop-opacity:1;"/>
<stop offset="1" style="stop-color:rgb(93.725491%,32.549021%,31.37255%);stop-opacity:1;"/>
</linearGradient>
<linearGradient id="linear5" gradientUnits="userSpaceOnUse" x1="4.909091" y1="49.090908" x2="4.909091" y2="-13.909091" gradientTransform="matrix(0.202132,0,0,0.202132,7.938258,4.094141)">
<stop offset="0" style="stop-color:rgb(93.725491%,32.549021%,31.37255%);stop-opacity:1;"/>
<stop offset="1" style="stop-color:rgb(89.803922%,45.09804%,45.09804%);stop-opacity:1;"/>
</linearGradient>
<linearGradient id="linear6" gradientUnits="userSpaceOnUse" x1="4.909091" y1="37.090908" x2="4.909091" y2="-25.09091" gradientTransform="matrix(0.202132,0,0,0.202132,7.938258,6.51972)">
<stop offset="0" style="stop-color:rgb(16.078432%,71.372551%,96.470588%);stop-opacity:1;"/>
<stop offset="1" style="stop-color:rgb(30.980393%,76.47059%,96.862745%);stop-opacity:1;"/>
</linearGradient>
</defs>
<g id="surface1">
<path style=" stroke:none;fill-rule:nonzero;fill:url(#radial0);" d="M 9.097656 14.015625 L 10.417969 14.015625 L 10.417969 13.355469 L 9.097656 13.355469 Z M 9.097656 14.015625 "/>
<path style=" stroke:none;fill-rule:nonzero;fill:url(#radial1);" d="M 6.78125 14.015625 L 5.457031 14.015625 L 5.457031 14.679688 L 6.78125 14.679688 Z M 6.78125 14.015625 "/>
<path style=" stroke:none;fill-rule:nonzero;fill:url(#radial2);" d="M 6.78125 14.015625 L 5.457031 14.015625 L 5.457031 13.355469 L 6.78125 13.355469 Z M 6.78125 14.015625 "/>
<path style=" stroke:none;fill-rule:nonzero;fill:url(#radial3);" d="M 9.097656 14.015625 L 10.417969 14.015625 L 10.417969 14.679688 L 9.097656 14.679688 Z M 9.097656 14.015625 "/>
<path style=" stroke:none;fill-rule:nonzero;fill:url(#linear0);" d="M 6.78125 13.851562 L 9.097656 13.851562 L 9.097656 14.679688 L 6.78125 14.679688 Z M 6.78125 13.851562 "/>
<path style="fill-rule:nonzero;fill:url(#linear1);stroke-width:3;stroke-linecap:round;stroke-linejoin:miter;stroke:rgb(20%,20%,20%);stroke-opacity:1;stroke-miterlimit:4;" d="M 253.975747 -168.629428 C 365.090136 -168.629428 455.081542 -78.638022 455.081542 32.476367 C 455.081542 143.465768 365.090136 233.457174 253.975747 233.457174 C 142.986345 233.457174 52.869951 143.465768 52.869951 32.476367 C 52.869951 -78.638022 142.986345 -168.629428 253.975747 -168.629428 Z M 253.975747 -168.629428 " transform="matrix(0.031253,0,0,0.031253,0,6.719392)"/>
<path style=" stroke:none;fill-rule:nonzero;fill:rgb(0%,0%,0%);fill-opacity:0.196078;" d="M 7.9375 14.015625 C 4.457031 14.015625 1.652344 11.214844 1.652344 7.734375 C 1.652344 7.710938 1.652344 7.691406 1.652344 7.671875 C 1.6875 11.125 4.476562 13.894531 7.9375 13.894531 C 11.398438 13.894531 14.191406 11.125 14.222656 7.671875 C 14.222656 7.691406 14.222656 7.710938 14.222656 7.734375 C 14.222656 11.214844 11.417969 14.015625 7.9375 14.015625 Z M 7.9375 14.015625 "/>
<path style=" stroke:none;fill-rule:nonzero;fill:rgb(100%,100%,100%);fill-opacity:0.392157;" d="M 7.9375 1.449219 C 4.457031 1.449219 1.652344 4.25 1.652344 7.734375 C 1.652344 7.753906 1.652344 7.773438 1.652344 7.792969 C 1.6875 4.339844 4.476562 1.570312 7.9375 1.570312 C 11.398438 1.570312 14.191406 4.339844 14.222656 7.792969 C 14.222656 7.773438 14.222656 7.753906 14.222656 7.734375 C 14.222656 4.25 11.417969 1.449219 7.9375 1.449219 Z M 7.9375 1.449219 "/>
<path style=" stroke:none;fill-rule:nonzero;fill:rgb(12.941177%,12.941177%,12.941177%);fill-opacity:1;" d="M 7.9375 1.402344 C 4.429688 1.402344 1.605469 4.226562 1.605469 7.734375 C 1.605469 11.238281 4.429688 14.0625 7.9375 14.0625 C 11.445312 14.0625 14.269531 11.238281 14.269531 7.734375 C 14.269531 4.226562 11.445312 1.402344 7.9375 1.402344 Z M 7.9375 1.496094 C 11.394531 1.496094 14.175781 4.277344 14.175781 7.734375 C 14.175781 11.1875 11.394531 13.96875 7.9375 13.96875 C 4.480469 13.96875 1.699219 11.1875 1.699219 7.734375 C 1.699219 4.277344 4.480469 1.496094 7.9375 1.496094 Z M 7.9375 1.496094 "/>
<path style=" stroke:none;fill-rule:nonzero;fill:rgb(0%,0%,0%);fill-opacity:0.235294;" d="M 5.539062 7.980469 C 5.519531 8.0625 5.511719 8.144531 5.511719 8.230469 C 5.511719 8.898438 6.054688 9.441406 6.726562 9.441406 L 7.9375 9.441406 L 7.9375 8.945312 L 6.726562 8.945312 C 6.140625 8.945312 5.652344 8.53125 5.539062 7.980469 Z M 5.539062 7.980469 "/>
<path style=" stroke:none;fill-rule:nonzero;fill:url(#linear2);" d="M 6.726562 11.371094 C 7.394531 11.371094 7.9375 10.828125 7.9375 10.15625 L 7.9375 8.945312 L 6.726562 8.945312 C 6.054688 8.945312 5.511719 9.488281 5.511719 10.15625 C 5.511719 10.828125 6.054688 11.371094 6.726562 11.371094 Z M 6.726562 11.371094 "/>
<path style=" stroke:none;fill-rule:nonzero;fill:rgb(0%,0%,0%);fill-opacity:0.235294;" d="M 7.9375 10.15625 C 7.9375 10.828125 7.394531 11.371094 6.726562 11.371094 C 6.140625 11.371094 5.652344 10.957031 5.539062 10.40625 C 5.519531 10.484375 5.511719 10.570312 5.511719 10.652344 C 5.511719 11.324219 6.054688 11.867188 6.726562 11.867188 C 7.394531 11.867188 7.9375 11.324219 7.9375 10.652344 Z M 7.9375 10.15625 "/>
<path style=" stroke:none;fill-rule:nonzero;fill:rgb(0%,0%,0%);fill-opacity:0.235294;" d="M 5.539062 5.554688 C 5.519531 5.636719 5.511719 5.71875 5.511719 5.804688 C 5.511719 6.472656 6.054688 7.015625 6.726562 7.015625 L 7.9375 7.015625 L 7.9375 6.519531 L 6.726562 6.519531 C 6.140625 6.519531 5.652344 6.105469 5.539062 5.554688 Z M 5.539062 5.554688 "/>
<path style=" stroke:none;fill-rule:nonzero;fill:url(#linear3);" d="M 5.511719 7.734375 C 5.511719 7.0625 6.054688 6.519531 6.726562 6.519531 L 7.9375 6.519531 L 7.9375 8.945312 L 6.726562 8.945312 C 6.054688 8.945312 5.511719 8.402344 5.511719 7.734375 Z M 5.511719 7.734375 "/>
<path style=" stroke:none;fill-rule:nonzero;fill:url(#linear4);" d="M 5.511719 5.308594 C 5.511719 4.636719 6.054688 4.09375 6.726562 4.09375 L 7.9375 4.09375 L 7.9375 6.519531 L 6.726562 6.519531 C 6.054688 6.519531 5.511719 5.976562 5.511719 5.308594 Z M 5.511719 5.308594 "/>
<path style=" stroke:none;fill-rule:nonzero;fill:url(#linear5);" d="M 7.9375 4.09375 L 9.152344 4.09375 C 9.820312 4.09375 10.363281 4.636719 10.363281 5.308594 C 10.363281 5.976562 9.820312 6.519531 9.152344 6.519531 L 7.9375 6.519531 Z M 7.9375 4.09375 "/>
<path style=" stroke:none;fill-rule:nonzero;fill:rgb(0%,0%,0%);fill-opacity:0.235294;" d="M 10.339844 5.554688 C 10.222656 6.105469 9.734375 6.519531 9.152344 6.519531 L 7.9375 6.519531 L 7.9375 7.015625 L 9.152344 7.015625 C 9.820312 7.015625 10.363281 6.472656 10.363281 5.804688 C 10.363281 5.71875 10.355469 5.636719 10.339844 5.554688 Z M 10.339844 5.554688 "/>
<path style=" stroke:none;fill-rule:nonzero;fill:url(#linear6);" d="M 10.363281 7.734375 C 10.363281 8.402344 9.820312 8.945312 9.152344 8.945312 C 8.480469 8.945312 7.9375 8.402344 7.9375 7.734375 C 7.9375 7.0625 8.480469 6.519531 9.152344 6.519531 C 9.820312 6.519531 10.363281 7.0625 10.363281 7.734375 Z M 10.363281 7.734375 "/>
<path style=" stroke:none;fill-rule:nonzero;fill:rgb(0%,0%,0%);fill-opacity:0.235294;" d="M 7.964844 7.980469 C 7.945312 8.0625 7.9375 8.144531 7.9375 8.230469 C 7.9375 8.898438 8.480469 9.441406 9.152344 9.441406 C 9.820312 9.441406 10.363281 8.898438 10.363281 8.230469 C 10.363281 8.144531 10.355469 8.0625 10.339844 7.980469 C 10.222656 8.53125 9.734375 8.945312 9.152344 8.945312 C 8.566406 8.945312 8.078125 8.53125 7.964844 7.980469 Z M 7.964844 7.980469 "/>
<path style=" stroke:none;fill-rule:nonzero;fill:rgb(100%,100%,100%);fill-opacity:0.392157;" d="M 6.726562 8.945312 C 6.054688 8.945312 5.511719 9.488281 5.511719 10.15625 C 5.511719 10.214844 5.515625 10.269531 5.523438 10.324219 C 5.605469 9.730469 6.113281 9.277344 6.726562 9.277344 L 7.9375 9.277344 L 7.9375 8.945312 Z M 6.726562 8.945312 "/>
<path style=" stroke:none;fill-rule:nonzero;fill:rgb(100%,100%,100%);fill-opacity:0.392157;" d="M 6.726562 6.519531 C 6.054688 6.519531 5.511719 7.0625 5.511719 7.734375 C 5.511719 7.789062 5.515625 7.84375 5.523438 7.898438 C 5.605469 7.304688 6.113281 6.851562 6.726562 6.851562 L 7.9375 6.851562 L 7.9375 6.519531 Z M 6.726562 6.519531 "/>
<path style=" stroke:none;fill-rule:nonzero;fill:rgb(100%,100%,100%);fill-opacity:0.392157;" d="M 6.726562 4.09375 C 6.054688 4.09375 5.511719 4.636719 5.511719 5.308594 C 5.511719 5.363281 5.515625 5.417969 5.523438 5.472656 C 5.605469 4.878906 6.113281 4.425781 6.726562 4.425781 L 7.9375 4.425781 L 7.9375 4.09375 Z M 6.726562 4.09375 "/>
<path style=" stroke:none;fill-rule:nonzero;fill:rgb(100%,100%,100%);fill-opacity:0.392157;" d="M 7.9375 4.09375 L 7.9375 4.425781 L 9.152344 4.425781 C 9.765625 4.425781 10.273438 4.878906 10.351562 5.472656 C 10.359375 5.417969 10.363281 5.363281 10.363281 5.308594 C 10.363281 4.636719 9.820312 4.09375 9.152344 4.09375 Z M 7.9375 4.09375 "/>
<path style=" stroke:none;fill-rule:nonzero;fill:rgb(100%,100%,100%);fill-opacity:0.392157;" d="M 9.152344 6.519531 C 8.480469 6.519531 7.9375 7.0625 7.9375 7.734375 C 7.9375 7.789062 7.941406 7.84375 7.949219 7.898438 C 8.03125 7.304688 8.539062 6.851562 9.152344 6.851562 C 9.765625 6.851562 10.273438 7.304688 10.351562 7.898438 C 10.359375 7.84375 10.363281 7.789062 10.363281 7.734375 C 10.363281 7.0625 9.820312 6.519531 9.152344 6.519531 Z M 9.152344 6.519531 "/>
<path style="fill:none;stroke-width:3;stroke-linecap:butt;stroke-linejoin:miter;stroke:rgb(12.941177%,12.941177%,12.941177%);stroke-opacity:1;stroke-miterlimit:4;" d="M 215.229447 148.840255 C 236.602406 148.840255 253.975747 131.466914 253.975747 109.968967 L 253.975747 71.222667 L 215.229447 71.222667 C 193.7315 71.222667 176.358159 88.596008 176.358159 109.968967 C 176.358159 131.466914 193.7315 148.840255 215.229447 148.840255 Z M 215.229447 148.840255 " transform="matrix(0.031253,0,0,0.031253,0,6.719392)"/>
<path style="fill:none;stroke-width:3;stroke-linecap:butt;stroke-linejoin:miter;stroke:rgb(12.941177%,12.941177%,12.941177%);stroke-opacity:1;stroke-miterlimit:4;" d="M 176.358159 32.476367 C 176.358159 10.97842 193.7315 -6.394921 215.229447 -6.394921 L 253.975747 -6.394921 L 253.975747 71.222667 L 215.229447 71.222667 C 193.7315 71.222667 176.358159 53.849326 176.358159 32.476367 Z M 176.358159 32.476367 " transform="matrix(0.031253,0,0,0.031253,0,6.719392)"/>
<path style="fill:none;stroke-width:3;stroke-linecap:butt;stroke-linejoin:miter;stroke:rgb(12.941177%,12.941177%,12.941177%);stroke-opacity:1;stroke-miterlimit:4;" d="M 176.358159 -45.141221 C 176.358159 -66.639168 193.7315 -84.012509 215.229447 -84.012509 L 253.975747 -84.012509 L 253.975747 -6.394921 L 215.229447 -6.394921 C 193.7315 -6.394921 176.358159 -23.768262 176.358159 -45.141221 Z M 176.358159 -45.141221 " transform="matrix(0.031253,0,0,0.031253,0,6.719392)"/>
<path style="fill:none;stroke-width:3;stroke-linecap:butt;stroke-linejoin:miter;stroke:rgb(12.941177%,12.941177%,12.941177%);stroke-opacity:1;stroke-miterlimit:4;" d="M 253.975747 -84.012509 L 292.847035 -84.012509 C 314.219993 -84.012509 331.593334 -66.639168 331.593334 -45.141221 C 331.593334 -23.768262 314.219993 -6.394921 292.847035 -6.394921 L 253.975747 -6.394921 Z M 253.975747 -84.012509 " transform="matrix(0.031253,0,0,0.031253,0,6.719392)"/>
<path style="fill:none;stroke-width:3;stroke-linecap:butt;stroke-linejoin:miter;stroke:rgb(12.941177%,12.941177%,12.941177%);stroke-opacity:1;stroke-miterlimit:4;" d="M 331.593334 32.476367 C 331.593334 53.849326 314.219993 71.222667 292.847035 71.222667 C 271.349087 71.222667 253.975747 53.849326 253.975747 32.476367 C 253.975747 10.97842 271.349087 -6.394921 292.847035 -6.394921 C 314.219993 -6.394921 331.593334 10.97842 331.593334 32.476367 Z M 331.593334 32.476367 " transform="matrix(0.031253,0,0,0.031253,0,6.719392)"/>
</g>
</svg>
